assets/misc-grey/MiscGrey57.svg

<svg width="47" height="38" viewBox="0 0 47 38" fill="none" xmlns="http://www.w3.org/2000/svg">
<path fill-rule="evenodd" clip-rule="evenodd" d="M38.33 6.65499C38.83 5.98999 39.77 5.85399 40.43 6.34799C40.66 6.51899 46.04 10.618 46.04 19.048C46.04 27.479 40.66 31.578 40.43 31.749C40.16 31.949 39.85 32.046 39.54 32.046C39.08 32.046 38.63 31.837 38.33 31.441C37.84 30.779 37.97 29.843 38.63 29.347C38.82 29.204 43.04 25.91 43.04 19.048C43.04 12.1823 38.774 8.85844 38.6428 8.75619C38.6414 8.75507 38.6404 8.75434 38.64 8.75399C37.97 8.25899 37.84 7.31899 38.33 6.65499ZM32.42 11.48C32.98 10.869 33.92 10.815 34.54 11.37C34.5423 11.3722 34.5457 11.3753 34.55 11.3794C34.7857 11.5998 37.9125 14.5242 38.05 18.786C38.15 21.558 36.99 24.205 34.61 26.655C34.32 26.958 33.93 27.11 33.53 27.11C33.16 27.11 32.78 26.97 32.49 26.687C31.89 26.109 31.88 25.16 32.46 24.565C34.24 22.73 35.11 20.829 35.06 18.913C34.9629 15.9481 32.6887 13.7504 32.5377 13.6046C32.5332 13.6002 32.5306 13.5976 32.53 13.597C31.92 13.04 31.87 12.093 32.42 11.48ZM25.2 33.626C25.2 34.508 25 34.842 24.93 34.89C24.82 34.969 24.41 34.93 24.18 34.838C21.53 33.584 14.4 30.163 13.14 29.406C12.3 28.906 12.32 28.482 12.36 27.639C12.36 27.48 12.37 27.33 12.37 27.188C12.36 26.257 12.37 11.027 12.37 11.027C12.37 11.026 12.37 11.024 12.37 11.022C12.37 10.434 12.8 10.094 12.91 10.02C14.14 9.43699 20.67 5.85499 23.66 3.96399C24.23 3.61099 24.66 3.60899 24.88 3.72899C25.16 3.87999 25.21 4.26499 25.21 4.50399C25.23 5.19799 25.21 25.756 25.2 33.626ZM9.36998 26.423H3.59998V12.298H9.36998C9.36998 15.489 9.36998 23.791 9.36998 26.423ZM26.31 1.09299C25.07 0.41599 23.48 0.53899 22.07 1.42499C18.88 3.43599 12.23 7.04199 11.61 7.31299C11.57 7.33299 11.52 7.35599 11.47 7.38299C10.95 7.67099 10.2 8.32599 9.74998 9.29799H2.09998C1.26998 9.29799 0.599976 9.96999 0.599976 10.798V27.923C0.599976 28.751 1.26998 29.423 2.09998 29.423H9.52998C9.76998 30.285 10.33 31.224 11.6 31.979C13.24 32.965 22.5 37.361 22.93 37.568C23.06 37.623 23.8 37.929 24.71 37.929C25.3 37.929 25.97 37.801 26.58 37.396C27.66 36.686 28.21 35.413 28.2 33.622C28.2 30.705 28.23 5.10699 28.21 4.43499C28.19 2.97499 27.48 1.72599 26.31 1.09299Z" fill="#1A1919"/>
</svg>

<svg xmlns="http://www.w3.org/2000/svg" viewBox="0 0 47 38"><path fill-rule="evenodd" d="M38.33 6.655c.5-.665 1.44-.801 2.1-.307.23.171 5.61 4.27 5.61 12.7 0 8.431-5.38 12.53-5.61 12.701-.27.2-.58.297-.89.297a1.502 1.502 0 01-.91-2.699c.19-.143 4.41-3.437 4.41-10.299 0-6.866-4.266-10.19-4.397-10.292a1.5 1.5 0 01-.313-2.101zm-5.91 4.825c.56-.611 1.5-.665 2.12-.11l.01.01c.236.22 3.363 3.144 3.5 7.406.1 2.772-1.06 5.419-3.44 7.869-.29.303-.68.455-1.08.455-.37 0-.75-.14-1.04-.423a1.493 1.493 0 01-.03-2.122c1.78-1.835 2.65-3.736 2.6-5.652-.097-2.965-2.371-5.163-2.522-5.308a1.508 1.508 0 01-.118-2.125zM25.2 33.626c0 .882-.2 1.216-.27 1.264-.11.079-.52.04-.75-.052-2.65-1.254-9.78-4.675-11.04-5.432-.84-.5-.82-.924-.78-1.767 0-.159.01-.309.01-.451-.01-.931 0-16.161 0-16.161v-.005c0-.588.43-.928.54-1.002 1.23-.583 7.76-4.165 10.75-6.056.57-.353 1-.355 1.22-.235.28.151.33.536.33.775.02.694 0 21.252-.01 29.122zM9.37 26.423H3.6V12.298h5.77v14.125zm16.94-25.33c-1.24-.677-2.83-.554-4.24.332-3.19 2.011-9.84 5.617-10.46 5.888-.04.02-.09.043-.14.07-.52.288-1.27.943-1.72 1.915H2.1a1.5 1.5 0 00-1.5 1.5v17.125c0 .828.67 1.5 1.5 1.5h7.43c.24.862.8 1.801 2.07 2.556 1.64.986 10.9 5.382 11.33 5.589a4.8 4.8 0 001.78.361c.59 0 1.26-.128 1.87-.533 1.08-.71 1.63-1.983 1.62-3.774 0-2.917.03-28.515.01-29.187-.02-1.46-.73-2.709-1.9-3.342z" clip-rule="evenodd"/></svg>
